X:1
T:Poor Unfortunate Soulds
T:Poor Unfortunate Soulds
T:From The Little Mermaid
T:Alan Menken
T:Transcribed by: Matt McLaughlin
%%score 1 { 2 | 3 }
L:1/8
Q:1/4=80
M:2/2
K:Eb
V:1 treble-8 nm="Voice"
V:2 treble nm="Piano"
V:3 bass 
V:1
|:"^\n""^Vamp until ready." z8 :| z4 z2 EF | GGGG AGFA | G2 E2 z E(EF) | GGGG AGFE | F2 z2 z2 DE | %6
w: |I ad-|mit that in the past I've been a|nas- ty. They wer- en't|kid- ding when they called me, well, a|witch. But you'll|
 FFFF D2 z D | FFFF D2 z D | EEEE FFEF | G2 c2 d2 EF | GGGG AGFA | G2 E3 z EF | GGGG AGFE | %13
w: find that now- a- days I've|mend- ed all my ways, re-|pent- ed, seen the llight and made a|switch, true? Yes. And I|for- tu- nate- ly know a lit- tle|mag- ic. It's a|ta- lent that I al- ways have pos-|
 F2 z2 z2 DE | FFFF D2 z D | FFFF D2 CD | EEEE FFEF | G2 G2 c2 d2 | %18
w: sessed. And here|late- ly please don't laugh, I|use it on be- half of the|mis- er- a- ble, lone- ly and de-|pressed pa- the- tic|
[K:treble-8][Q:1/4=100] e2 df- fe d2 | e6 g2 | d6 g2 | c6 GG | AAAA GGGG | cccc GGGG | %24
w: poor un- for- * tu- nate|souls, in|pain, in|need. This one|long- ing to be thin- ner. That one|wants to get the girl. And do I|
 d2 d2 z2 ec | d4 z2 G2 | e2 df- fe d2 | e6 g2 | d6 g2 | c6 GG | AAAA GGGG | c2 (3ccc e2 dc | %32
w: help them? Yes, in-|deed. Those|poor un- for- * tu- nate|souls, so|sad, so|true. They come|flock- ing to my cal- dron cry- ing|spells, Ur- su- la please! And I|
 d2 d2 z2 eG | c4 z2 GG |[Q:1/4=90] AAAA A2 z A/A/ | cccc c2 z/ c/c/c/ | dddd ddc-c/d/ | e6 GG | %38
w: help them? Yes I|do. Now it's|hap- pened once or twice, some- one|could- n't pay the price, and I'm a-|fraid I had to rake 'em 'cross * the|coals. Yes I've|
 AAAA A2 z/ A/A/A/ | _ddee f2 z/ c/d |!f! e2 df- fe d2 |[Q:1/4=80]!ff! (e4 c4) |: %42
w: had the odd com- plaint. But on the|whole I've been a saint. to those|poor un- for- * tu- nate|souls. *|
"^Dialogue""^Vamp""^Ariel: ... without my voice \nhow can I? [GO]" x8 :| %43
w: |
 z4 !fermata!z[Q:1/4=120]!mf! BBB | B2 z2 z GGG | G2 z2 z4 |"_Ursula: And don't underestimate" z8 | %47
w: You'll have your|looks. Your pret- ty|face.||
"_Ursula: the importance of" z8 ||[K:F]"_body language!" z8 | z4 z2 z F | AAAA BAGB | A2 F2 z2 A2 | %52
w: ||The|men up there don't like a lot of|blab- ber. They|
 AAAA BAGF | G4 z2 EF | GGGG EEEF | GGGG EEDE | FFEF GGFG | A2 B2 B2 A2 | AAAA BAGB | A2 F2 z2 G2 | %60
w: think a girl who gos- sips is a|bore. Yes on|land it's much pre- fered for la- dies|not to say a word. And af- ter|all, dear, what is i- dle prat- tle|for? Come on! They're|not all that im- pressed with con- ver-|sa- tion. True|
 AAAA BAGF | G4 z2 EF | GGGG E2 EF | GGGG E2 z E | FFEF GGFG | A3 A d2 e2 | f2 eg- gf e2 | f6 aa | %68
w: gen- tle- men a- void it when they|can. But they|dote and swoon and fawn on a|la- dy who's with- drawn. It's|she who holds her tongue who gets her|man. Come on, you|poor un- for- * tu- nate|soul! Go a-|
 e4 (3z2 a2 a2 | d4 z2 AA | BBBB AAAA | dddd G2 dd | e2 e2 z2 fd | e4 z2 a2 | f2 eg- gf e2 | %75
w: head! Make your|choice. I'm a|ver- y bus- y wom- an and I|have- n't got all day. It won't|cost much, just your|voice. You|poor un- for- tu- * nate|
 f6 a2 | e6 a2 | d4 z2 AA | BBBB AAAA | dddd G2 AA | BBBB AAAA | dddd A2 AA | BBBB AAAA | %83
w: soul. It's|sad but|true. If you|want to cross a bridge, my sweet, you've|got to pay the toll. Take a|gulp and take a breath and go a-|head and sign the scroll. Flot- sam|Jet- sam, now I've got her, boys, the|
[Q:1/4=80] ddee f4- | f4 z2[Q:1/4=120] d2 | f2 z2 f2 z2 | g3 a a4 | a8 | d8- | d8- | d2 z2 z2 z2 | %91
w: boss is on a roll!|* This|poor un-|for- tu- nate|soul!||||
 z2 z2 z2 z2 |] %92
w: |
V:2
|: z2 [DEG][DEG] z2 [DEG]2 :| z2 [DEG][DEG] z2 [DEG]2 | z2 [CE]2 z2 [DE]2 | z2 [CE]2 z2 [CE]2 | %4
 z2 [CE]2 z2 [CF]2 | z2 [A,_D]2 z2 [=DE]2 | [CF]4 [=B,D]4 | [CF]4 [=B,D]4 | [A,C]4 [A,_D]4 | %9
 G2 [FAc]2 [G=Bd]2 [EF][EF] | z2 [CE]2 z2 [CE]2 | z2 [CE]3 z [CE]2 | z2 [CE]2 z2 [CF]2 | %13
 z2 [A,_D]2 z2 [=DE]2 | [CF]4 [=B,D]4 | [CF]4 [=B,D]4 | [A,C]4 [A,_D]4 | [CD]4 [F=Ac]2 [G=Bd]2 | %18
 z2 [Gc]2 z2 [F_A=B]2 | z2 [Gc]2 z2 [ceg]2 | z2 [FAc]2 [FG=B]4 | z2 [CEG]2 z2 [CEG]2 | %22
 .[CF]2 z2 .[=B,D]2 z2 | .[EG]2 z2 .[CE]2 z2 | z2 [C^F=A]4 z2 | z2 [FAc]2 [FG=B]2 z2 | %26
 z2 [Gc]2 z2 [F_A=B]2 | z2 [Gc]2 z2 [ceg]2 | z2 [FAc]2 [FG=B]4 | z2 [CEG]2 z2 [CEG]2 | %30
 .[CF]2 z2 .[=B,D]2 z2 | .[EG]2 z2 .[Gc]2 z2 | z2 [C^F=A]2 [=FG=B]2 z2 | z2 [EG]2 !>![EG]2 z2 | %34
 [CDF]8 | [DFAc]8 | [Fc]4 [F=B]4 | [Gce]8 | [A,_DF]8 | [FA_d]2 [Ace]2 [Adf]2 z2 | %40
 [Gce]2 d[GBf]- [GBf]4 | z2 [DEG][DEG] z2 [DEG]2 |: z2 [DEG][DEG] z2 [DEG]2 :| !fermata!z8 | %44
 z2 [DEG][DEG] z2 [DEG]2 | z2 [DEG][DEG] z2 [DEG]2 | z2 [DEG][DEG] z2 [DEG]2 | %47
 z2 [DEG][DEG] z2 [DEG]2 ||[K:F] z2 [EFA][EFA] z2 [EFA]2 | z2 [EFA][EFA] z2 [EFA]2 | %50
 z2 [DFA]2 z2 [DFG]2 | [FA]4 z2 [DF]2 | z2 [DFA]2 z2 [DG]2 | z2 [B,_E][B,E] z2 [=EG]2 | %54
 [B,D]4 [G,^C]4 | [B,D]4 [G,^C]4 | [B,DF]4 [B,_E]4 | [DGA]4 [^CG]4 | z2 [DFA]2 z2 [DFG]2 | %59
 [FA]4 z2 [DF]2 | z2 [DFA]2 z2 [DG]2 | z2 [B,_E][B,E] z2 [=EG]2 | [B,D]4 [G,^C]4 | [B,D]4 [G,^C]4 | %64
 [B,DF]4 [B,_E]4 | [DGA]4 [^CG]4 | z2 [Ade]2 z2 [G^ce]2 | z2 [Ad]6 | [GBe]4 [G^c]4 | %69
 z2 [FA]2 z2 [DFA]2 | .[DGB]2 z2 .[^CGA]2 z2 | .[FA]2 z2 .[DFA]2 z2 | z2 [^G=Be]2 [GB]2 z2 | %73
 z2 [G^c]2 [GA]4 | z2 [Ade]2 z2 [G^ce]2 | z2 [Ad]6 | [GBe]4 [G^c]4 | z2 [FA]2 z2 [DFA]2 | %78
 .[DGB]2 z2 .[^CGA]2 z2 | .[FA]2 z2 .[DFA]2 z2 | .[DGB]2 z2 .[^CGA]2 z2 | .[FA]2 z2 .[DFA]2 z2 | %82
 .[DGB]2 z2 .[^CGA]2 z2 | [FA][FA][EA][EA] [Adf]4- | [Adf]4 z2 z2 | z2 [_Ad]2 z2 [Ad]2 | %86
 z2 [G^c]6 | [fa][fa][fa][fa] [fa]2 [eg]2 | ba_ag _gfe_e | d_dcB AGFE |!f! [DFAd]8 | %91
 !>![DFAd] z z2 z2 z2 |] %92
V:3
|:!p! C,,2 z2 G,,2 z2 :|!mf! C,,2 z2 G,,2 z2 | C,,2 z2 G,,2 z2 | C,,2 z2 G,,2 z2 | %4
 C,,2 z2 G,,2 z2 | _D,,2 z2 A,,2 z2 | D,,2 z2 G,,2 z2 | D,,2 z2 G,,2 z2 | A,,2 z2 _D,,2 z2 | %9
 G,,2 z2 z4 | C,,2 z2 G,,2 z2 | C,,2 z2 G,,2 z2 | C,,2 z2 G,,2 z2 | _D,,2 z2 A,,2 z2 | %14
 D,,2 z2 G,,2 z2 | D,,2 z2 G,,2 z2 | A,,2 z2 _D,,2 z2 | G,,8 | C,,2 z2 G,,2 z2 | C,,2 z2 G,,2 z2 | %20
 C,,2 z2 G,,2 z2 | C,,2 z2 G,,2 z2 | .[D,,,D,,]2 z2 .[G,,,G,,]2 z2 | %23
 .[C,,,C,,]2 z2 .[E,,,E,,]2 z2 | D,,8 | z2 D,2 G,,2 z2 | C,,2 z2 G,,2 z2 | C,,2 z2 G,,2 z2 | %28
 C,,2 z2 G,,2 z2 | C,,2 z2 G,,2 z2 | .[D,,,D,,]2 z2 .[G,,,G,,]2 z2 | %31
 .[C,,,C,,]2 z2 .[E,,,E,,]2 z2 | D,,2 z2 G,,2 z2 | z2 G,,2 !>!C,,2 z2 | D,,8 | F,,8 | G,,8 | C,8 | %38
 _D,,8 | _D,,2 A,,2 D,,2 z2 | G,,8 | C,,2 z2 G,,2 z2 |: C,,2 z2 G,,2 z2 :| !fermata!z8 | %44
 C,,2 z2 G,,2 z2 | C,,2 z2 G,,2 z2 | C,,2 z2 G,,2 z2 | C,,2 z2 G,,2 z2 ||[K:F] D,,2 z2 A,,2 z2 | %49
 D,,2 z2 A,,2 z2 | D,,2 z2 A,,2 z2 | D,,2 z2 A,,2 z2 | D,,2 z2 A,,2 z2 | _E,,2 z2 B,,2 z2 | %54
 E,,4 A,,4 | E,,4 A,,4 | B,,4 _E,,4 | A,,8 | D,,2 z2 A,,2 z2 | D,,2 z2 A,,2 z2 | D,,2 z2 A,,2 z2 | %61
 _E,,2 z2 B,,2 z2 | E,,4 A,,4 | E,,4 A,,4 | B,,4 _E,,4 | A,,8 | D,,2 z2 A,,2 z2 | D,,2 z2 A,,2 z2 | %68
 E,,2 z2 A,,2 z2 | D,,2 z2 G,,2 z2 | .[E,,,E,,]2 z2 .[A,,,A,,]2 z2 | %71
 .[D,,,D,,]2 z2 .[F,,,F,,]2 z2 | z2 E,,2 ^G,,2 z2 | z2 A,,2 ^C,2 z2 | D,,2 z2 A,,2 z2 | %75
 D,,2 z2 A,,2 z2 | E,,2 z2 A,,2 z2 | D,,2 z2 G,,2 z2 | .[E,,,E,,]2 z2 .[A,,,A,,]2 z2 | %79
 .[D,,,D,,]2 z2 .[F,,,F,,]2 z2 | .[E,,,E,,]2 z2 .[A,,,A,,]2 z2 | .[D,,,D,,]2 z2 .[F,,,F,,]2 z2 | %82
 .[E,,,E,,]2 z2 .[A,,,A,,]2 z2 | D,,2 C,,2 =B,,,4- | B,,,4 z2 z2 | B,,,2 z2 B,,,2 z2 | %86
 A,,,2 A,,,4 A,,,2 | [D,,D,]2 z2 [A,,A,]2 z2 | [D,,D,]2 z2 [A,,A,]2 z2 | [D,,D,]2 z2 [A,,A,]2 z2 | %90
 [D,,D,]8 | !>![D,,,D,,] z z2 z2 z2 |] %92

